source/asset/images/icons/icon-contacts-map.svg

<svg width="16" height="16" viewBox="0 0 16 16" fill="none" xmlns="http://www.w3.org/2000/svg">
<path d="M8.00126 9.33272C9.47193 9.33272 10.6679 8.13672 10.6679 6.66606C10.6679 5.19539 9.47193 3.99939 8.00126 3.99939C6.53059 3.99939 5.33459 5.19539 5.33459 6.66606C5.33459 8.13672 6.53059 9.33272 8.00126 9.33272ZM8.00126 5.33272C8.73659 5.33272 9.33459 5.93072 9.33459 6.66606C9.33459 7.40139 8.73659 7.99939 8.00126 7.99939C7.26593 7.99939 6.66793 7.40139 6.66793 6.66606C6.66793 5.93072 7.26593 5.33272 8.00126 5.33272Z" fill="white"/>
<path d="M7.61335 14.5427C7.72935 14.6254 7.86468 14.6667 8.00002 14.6667C8.13535 14.6667 8.27068 14.6254 8.38668 14.5427C8.58935 14.3994 13.3527 10.96 13.3334 6.66671C13.3334 3.72604 10.9407 1.33337 8.00002 1.33337C5.05935 1.33337 2.66668 3.72604 2.66668 6.66337C2.64735 10.96 7.41069 14.3994 7.61335 14.5427ZM8.00002 2.66671C10.206 2.66671 12 4.46071 12 6.67004C12.014 9.62871 9.07468 12.2854 8.00002 13.1567C6.92602 12.2847 3.98602 9.62737 4.00002 6.66671C4.00002 4.46071 5.79402 2.66671 8.00002 2.66671Z" fill="white"/>
</svg>

<svg width="16" height="16" viewBox="0 0 16 16" fill="none" xmlns="http://www.w3.org/2000/svg"><path d="M8.001 9.333a2.67 2.67 0 002.667-2.667A2.67 2.67 0 008 4a2.67 2.67 0 00-2.666 2.667A2.67 2.67 0 008 9.333zm0-4A1.335 1.335 0 018 8a1.335 1.335 0 01-1.333-1.333c0-.735.598-1.333 1.333-1.333z" fill="#fff"/><path d="M7.613 14.543a.665.665 0 00.774 0c.202-.144 4.966-3.583 4.946-7.876A5.34 5.34 0 008 1.333a5.339 5.339 0 00-5.333 5.33c-.02 4.297 4.744 7.736 4.946 7.88zM8 2.667c2.206 0 4 1.794 4 4.003.014 2.959-2.925 5.615-4 6.487-1.074-.872-4.014-3.53-4-6.49 0-2.206 1.794-4 4-4z" fill="#fff"/></svg>
